html/app/assets/img/ui/distance.svg

<svg fill="none" height="22" viewBox="0 0 22 22" width="22" xmlns="http://www.w3.org/2000/svg"><path d="m10.5 4h.4344c3.0472 0 4.5709 0 5.1492.54729.5.47308.7215 1.16999.5866 1.84492-.1562.78081-1.4001 1.66064-3.8879 3.42032l-4.06458 2.87497c-2.48782 1.7596-3.73173 2.6395-3.88788 3.4203-.13498.6749.08658 1.3718.58652 1.8449.57838.5473 2.102.5473 5.14924.5473h.9344m-4.5-14.5c0 1.65685-1.34315 3-3 3s-3-1.34315-3-3 1.34315-3 3-3 3 1.34315 3 3zm14 14c0 1.6569-1.3431 3-3 3s-3-1.3431-3-3 1.3431-3 3-3 3 1.3431 3 3z" stroke="#222" stroke-linecap="round" stroke-linejoin="round" stroke-width="2"/></svg>

<svg width="22" height="22" viewBox="0 0 22 22" fill="none" xmlns="http://www.w3.org/2000/svg">
<path d="M10.5 4H10.9344C13.9816 4 15.5053 4 16.0836 4.54729C16.5836 5.02037 16.8051 5.71728 16.6702 6.39221C16.514 7.17302 15.2701 8.05285 12.7823 9.81253L8.71772 12.6875C6.2299 14.4471 4.98599 15.327 4.82984 16.1078C4.69486 16.7827 4.91642 17.4796 5.41636 17.9527C5.99474 18.5 7.51836 18.5 10.5656 18.5H11.5M7 4C7 5.65685 5.65685 7 4 7C2.34315 7 1 5.65685 1 4C1 2.34315 2.34315 1 4 1C5.65685 1 7 2.34315 7 4ZM21 18C21 19.6569 19.6569 21 18 21C16.3431 21 15 19.6569 15 18C15 16.3431 16.3431 15 18 15C19.6569 15 21 16.3431 21 18Z" stroke="#222222" stroke-width="2" stroke-linecap="round" stroke-linejoin="round"/>
</svg>
